X:979
T:Back to the Sugar Camp
C:Ward Allen
M:2/4
L:1/8
K:D
DF G|A2 A3/2B/|AF Ad|f2 f3/2a/|fd AF|
G2 e3/2f/|ec AG|F2 A3/2B/|AD FG|
A2 A3/2B/|AF Ad|f2 f3/2a/|fd AF|
G2 e3/2d/|cA Bc|d2 d3/2d/|d:|
K:G
=c BA|B2 B3/2B/|BG Bc|d2 d3/2e/|d2 cB|
BA AB|c2 dB|cB B/A/B/c/|BD GA|
B2 B3/2c/|BG Bc|d2 d3/2e/|d2 cB|
BA Bc|ed EF|G2 G3/2G/|G:|


